X: 3
T: The New Mown Meadows
R: reel
M: 4/4
L: 1/8
K: Edor
BEED E2FA|B2cA BAFA|BE~E2 FEDF|A2BA FEFA|BEED E2FA|B2cA BAFA|d3B c3B|A2BA FEFA:||e2ce fece|e2cA BAFA|e2ce fecB|AcBc AFE2|e2ce fece|e2cA BAFA|d3B c3B|A2BA FEFA:||


Tune 2706	Setting 28238

